X:1
T:Fugue in C Major BWV 870
T:Das Wohltemperierte Klavier II 
T:Johann Sebastian Bach 
%%score { ( 1 3 4 ) | ( 2 5 ) }
L:1/8
Q:1/4=98
M:2/4
K:C
V:1 treble nm="Piano"
V:3 treble 
V:4 treble 
V:2 bass 
V:5 bass 
V:1
"^Vivace e deciso"!f! x"_mano sinistra" (!2!G/!3!F/ .!2!G).!5!C | %1
 (!>!!2!A/4!3!G/4!1!A3/2) .!tenuto!G2 |!mp! z"_poco non legato" !2!F/E/ F/G/E/F/ | %3
 !4!D/F/E/F/ !1!G/!2!A/!3!F/!1!G/ | z"^mano destra"!f! (!3!c/!2!B/ .!3!c).G | %5
 (!>!!3!e/4!2!d/4!3!e3/2) .!tenuto!d2 |!<(! z"^poco non legato" !3!c/!mp!B/ c/d/!<)!!mf!B/c/ | %7
 !1!A/c/!>(!!2!B/c/ !4!d/e/!>)!c/d/ |!p! .!3!B/A/B/!4!c/ !3!B/c/A/!3!B/ | !5!c>A !5!_B>!4!G | %10
 !5!A2 !4!=B!tenuto!c- | c !>!!5!c2 B | .c!f!(!3!g/!2!f/ .g).c | %13
 (!>!!5!a/4!4!g/4!5!a3/2) .!tenuto!!5!g2 | .!4!^f(!5!a/!4!g/ a)d | %15
 (!>!!5!b/4!4!a/4!5!b3/2) .!tenuto!!5!a2 | .!3!^g(!5!b/!4!a/ .b).e | !>!c'4- | %18
!<(! c'.!tenuto!!5!c'.!tenuto!!4!b.!2!g | !tenuto!!4!e2 .^f!<)!!f!!tenuto!g- | %20
 g"_mano sinistra"(!3!^f/!1!e/ !3!g/4!2!f/4!3!g/<!2!f/g/) | .g.e.^cd- | %22
 d/!>(!!2!g/"_mano sinistra""^mano destra"!4!_b/a/ !2!g/!1!f/!2!e/!>)!!1!d/ | %23
!mf! .!3!^c"_mano destra" !5!d2 ^c | z"_mano sinistra""^mano destra" (!3!d/!2!^c/ .!3!d).!1!A | %25
 (!>!!3!f/4e/4f3/2) .!tenuto!e2 | z!<(! !3!d/c/ d/e/c/d/ | B/!3!d/!1!c/d/ !3!e/=f/!2!d/!<)!e/ | %28
 .c"^scherzando"!mf!(!3!e/d/ .e).!1!c | .!5!a.!2!c.A.d | .!1!B(!3!d/c/ .d).B | .g._B.G.c | %32
 .A!>(!!3!d/c/ d/!>)!e/c/d/ | !1!B/!2!A/!>(!B/c/ B/!>)!c/A/B/ | .!1!G!3!c/B/ c/d/_B/c/ | %35
 !1!A/!2!G/!>(!A/_B/ !3!A/!>)!B/G/A/ | F/4G/4F/4G/4F/4G/4F/4G/4 F2- | .F(!5!d/c/ .d).!1!F | %38
"_mano destra" !3!E/D/E/F/ E/F/!3!D/!5!E/ |!>(! !3!C>!3!C !4!B,>!>)!!4!B, |!mp! !3!A,3 !3!B, | %41
 !5!C3 !3!A, | !5!D3 .B, |"_cresc." !5!E3 .!3!C | !5!F3 .D | !5!G2 .!5!A.!5!B | !5!c4- | c4- | %48
 c4- | c2 !5!B2 | z (!5!c/B/ .!5!c).!3!G |"_mano sinistra" (!>!!3!e/4d/4e3/2) .!tenuto!d2 | %52
 z !3!c/B/ c/d/B/c/ | !1!A/!3!c/"_mano destra"!2!B/c/ d/e/!3!c/d/ | %54
 .!2!B!mp!!<(!(!4!d/!2!c/ .!3!d).G | .!tenuto!e2 .!tenuto!d2 | .!3!c(!5!e/d/ .e).!2!A | %57
 .!tenuto!f2 .!tenuto!e2 | .!3!d(!5!f/e/ .f).B | .!tenuto!g2 .!tenuto!f2!<)! |!f! (!3!ef !5!g2-) | %61
 g2 !5!f2- | f2 !5!e2- | e2 !5!dc | !3!BG !5!c2- | c2 !5!B2 | .!5!c.!5!d !2!G/cB/ | %67
 .c/!p!!4!F/E/D/ E/F/D/E/ | !4!F/E/F/G/ F/G/E/F/ | .!2!D/C/D/E/ D/E/C/D/ | %70
 E/D/!3!E/F/ E/F/!2!D/E/ | !1-5!C4- | C4- | C4- | C"_cresc."(!2!B,!3!C!4!D | .E)(!5!G/F/ .G).!1!C | %76
 (!>!!3!A/4G/4A3/2) .!tenuto!!4!G2 | z4 | (!>!!5!G/4F/4G3/2) !4!F2 | %79
!f![Q:1/4=94] .!1!!2![CE].!3!!5![F_A].!2!!4![EG].!3!!5![_AB] | .!3!!5![Gc].!2!!4![DF].!2!E.!5!c | %81
"_mano destra""^pesante"[Q:1/4=90] .!tenuto!!2!D.!tenuto!c.!tenuto!!2!F.!tenuto!!4!B | %82
!ff! !>!!5![CEGc]4 |] %83
V:2
 z4 | z4 | z4 | z4 | z4 | z4 | z4 | z4 | z!f! (!2!G,/F,/ .!1!G,)C, | %9
 (!>!!2!A,/4!3!G,/4!1!A,3/2) .!tenuto!G,2 | z!mf! !2!F,/E,/ F,/G,/E,/F,/ | %11
 !4!D,/F,/E,/F,/ !1!G,/!2!A,/!3!F,/!1!G,/ | .!3!E,/D,/E,/F,/ !3!E,/F,/D,/E,/ | %13
 !2!F,/E,/F,/G,/ !2!F,/G,/E,/!1!F,/ | .!3!D,/^C,/!3!D,/!1!E,/ !2!^F,/G,/E,/!2!F,/ | %15
 !1!G,/!3!^F,/G,/A,/ !2!G,/A,/!3!=F,/!1!G,/ | .!3!E,/D,/!1!E,/^F,/ !2!^G,/A,/F,/G,/ | %17
 !1!A,/!3!^G,/A,/B,/ !2!A,/B,/!3!=G,/!1!A,/ | .!3!^F,/G,/E,/F,/ !2!G,/!1!A,/!2!B,/!4!G,/ | %19
 !1!C/!3!B,/!2!C/D/ !2!C/D/!3!B,/C/ | !1-5!D4 | .G,!2!G/!3!=F/ !2!G/A/!3!F/!1!G/ | !4!E4 | %23
 z .!1!D.!4!F,.!2!A, | .!5!D, z z2 | z4 | z4 | z4 | z4 | z4 | z4 | z4 | z4 | z4 | z4 | z4 | z4 | %37
 z4 | x3[I:staff -1] !1!B,- | B,/[I:staff +1]!2!B,/!1!A,- A,/!3!A,/!2!G,- | %40
 G,.!tenuto!!1!G,.!tenuto!!2!^F,!1!G,- | G,/^F,/G,/!2!E,/ !2!F,2- | F,.!2!B, !1!G,2- | %43
 G,.C !1!F,/!2!G,/!4!E,/F,/ | .!4!C,/F,/!3!E,/F,/ !1!G,/!2!A,/!3!F,/!1!G,/ | %45
 .!3!E,/D,/E,/F,/ E,/F,/!3!D,/!1!E,/ | !3!C,/D,/E,/!2!D,/ !1!C,/_B,,/!3!A,,/!1!G,,/ | %47
 !2!F,,/E,,/F,,/G,,/ F,,/G,,/E,,/!2!F,,/ | !5!D,,/!3!A,,/!2!B,,/!1!C,/ !3!D,/E,/!1!F,/!3!D,/ | %49
 !>!!1-5!G,4- | G,4- | G,4 | z2 z .!5!B, | .!2!C.!4!A,.!1!D.!1!D, | %54
 .!3!G,,/^F,,/G,,/A,,/ !3!B,,/!2!C,/!4!A,,/B,,/ | !2!C,/B,,/C,/D,/ C,/D,/!3!B,,/!1!C,/ | %56
 .!3!A,,/^G,,/A,,/!2!B,,/ !1!C,/!2!D,/!4!B,,/C,/ | !2!D,/C,/D,/E,/ D,/E,/!3!C,/!1!D,/ | %58
 .!3!B,,/A,,/B,,/C,/ !1!D,/!2!E,/!4!C,/D,/ | !2!E,/D,/E,/F,/ !2!E,/F,/!3!D,/!1!E,/ | %60
 .!3!C,/B,,/C,/D,/ !1!E,/!2!F,/!4!D,/!3!E,/ | !2!F,/G,/F,/!3!E,/ !1!D,/C,/B,,/A,,/ | %62
 .!3!B,,/G,,/A,,/B,,/ !2!C,/D,/!3!B,,/C,/ | !4!A,,/C,/B,,/!2!C,/ !1!D,/E,/!2!F,/!4!D,/ | %64
 .!1!G,/A,/!4!F,/G,/ !2!A,/B,/!3!G,/!1!A,/ | !3!F,/G,/E,/F,/ !2!G,/A,/F,/G,/ | %66
 .!tenuto!!4!E,.!tenuto!!3!F,.!tenuto!!1!G,.!tenuto!!2!^G, | .!5!A,,(!1!=G,/F,/ .G,).C, | %68
 (!>!!1!A,/4G,/4A,3/2) .!tenuto!G,2 | z (!2!F,/E,/ .F,).D, | (!>!!1!G,/4F,/4G,3/2) .!tenuto!F,2 | %71
"_mano sinistra" .!3!E,/D,/!3!E,/F,/ !3!E,/!2!F,/!4!D,/E,/ | %72
 (.!tenuto!!3!A,/4!2!G,/4A,3/2) .!tenuto!!2!G,2 | z (!3!F,/!2!E,/ .!3!F,).!1!D, | %74
 !1!G,2 .!tenuto!!1!A,.!tenuto!!2!B, | !5!C,,/!1!C,/!2!E,/C,/ !5!C,,/!1!C,/!2!G,/C,/ | %76
 !5!C,,/D,,/E,,/!2!F,,/ !1!G,,/A,,/B,,/C,/ | !5!C,,/!1!C,/!2!D,/C,/ !5!C,,/!1!C,/!2!F,/C,/ | %78
 !2!B,,/C,/!2!B,,/!3!A,,/ !1!G,,/F,,/E,,/D,,/ | !5!C,,/!1!C,/!4!D,/C,/ !3!E,/C,/!2!F,/C,/ | %80
 !1!G,/C,/!1!_A,/C,/ !1!G,/!3!C,/B,,/C,/ | .!1!=A, z"^mano sinistra" .!1!G, z | !>!C,,4 |] %83
V:3
 x4 | x4 | x4 | x4 | .!3!E/D/E/F/ !3!E/F/!4!D/!2!E/ | !3!C/B,/C/D/ !3!C/D/!4!B,/!2!C/ | %6
 !4!A,/B,/!2!C/D/ !3!E/!2!^F/!tenuto!!1!G- | G!2!^F/E/ F/4G/4F/4G/4F | G4- | G/!1!E/F- F/!1!D/E- | %10
 ED !2!G2 | !1!F/A/!2!G/A/ D2 | .C z z2 | z (!1!c/!2!B/ .!1!c).G | %14
 (!>!!2!d/4c/4d3/2) .!tenuto!!1!c2 | .B(!1!d/!2!c/ .!1!d).A | .!tenuto!!1!e2 .!tenuto!!1!d2 | %17
 .!1!c(!2!e/!1!d/ .e).!4!a | !1!d4- | d!1!c/!2!B/ .!1!A!tenuto!B- | B(!2!A/!3!G/ .!1!A).!3!D | %21
 .!tenuto!B2 .!tenuto!A2 | z !2!G/F/ !2!G/!1!A/!3!F/!1!G/ | %23
 !3!E/!tenuto!!2!G/!1!F/!2!G/ !1!A/!>(!!3!_B/!1!G/!2!A/!>)! | %24
 .!1!F/!mp!!tenuto!!3!E/F/G/ F/G/!3!E/!1!F/ | !3!D/C/D/E/ D/E/!4!C/!1!D/ | %26
 !3!B,/C/!1!D/!4!E/ !3!^F/^G/!>!!1!A- | A!2!^G/!3!^F/ !2!G/!1!A/4!2!G/4A/4G/4!3!F/4!2!G/4 | %28
 .!1!A/!3!^G/A/B/ A/B/!3!=G/!1!A/ | !3!^F/E/F/G/ F/G/!4!E/F/ | .!2!G/^F/G/A/ G/A/!3!=F/!1!G/ | %31
 !3!E/D/E/F/ E/F/D/E/ | .!2!F/E/F/G/ F/G/!3!E/!2!F/ | .D!1!G/!3!F/ !2!G/A/F/G/ | %34
 !3!E/D/E/F/ !3!E/!1!F/!2!D/E/ | .!3!C!2!F/E/ !2!F/G/E/F/ | D/C/!3!D/!1!E/ !2!D/!1!E/!3!C/!1!D/ | %37
 .!2!B,/A,/B,/C/ B,/C/!3!A,/!2!B,/ | !1!C3 x | x4 | x4 | x4 | x4 | x2[I:staff +1] !1!A,2- | %44
 A,[I:staff -1].!3!D !1!B,2- | B,.B,.!1!C.!1!D | .!1!E!f!(!3!G/!2!F/ .G).C | %47
 (!>!!3!A/4G/4A3/2) .!tenuto!G2 | z !2!F/E/ F/!3!G/!1!E/!2!F/ | %49
 !1!D/!3!F/!2!E/!3!F/ !1!G/!3!A/!1!F/!3!G/ | .!1!E/!2!D/!1!E/!2!F/ !1!E/!2!F/!1!D/E/ | %51
 !2!C/B,/C/D/ C/D/!3!B,/C/ | !4!A,/B,/!2!C/!1!D/ !3!E/^F/G- | G !1!G2 .!1!^F | !1!G2 z2 | %55
 z (!2!G/F/ G)D | !1!A2 G2 | .F(!2!A/G/ .A).E | !1!B2 A2 | G(!2!B/A/ .B).G | c2 !2!_B2 | !1!A4 | %62
 !1!G4 | !1!F4- | F2 !1!E2 | !1!D2- D/!1!F/!2!E/!1!D/ | !2!G/A/!1!F/G/ .!1!E.D | !tenuto!!1!C4- | %68
 C4- | C4- | C !1!C2 !1!B, | C"_mano destra"[I:staff +1](!2!G,/!1!F,/ .!2!G,).!1!C, | x4 | x4 | %74
 x4 |[I:staff -1] C(!2!_B,/!1!A,/ .!2!B,).!3!E | .!tenuto!!1!F2 .!tenuto!!2!E2 | x4 | %78
 z (!2!D/C/ .D).G, | z .!1!B,.C.!1!D | .!1!E.!1!B,.!1![CE].!2!E | .!tenuto!D z .!tenuto!!1!D z | %82
 x4 |] %83
V:4
 x4 | x4 | x4 | x4 | x4 | x4 | x4 | x4 | x4 | x4 | x4 | x4 | x4 | x4 | x4 | x4 | x4 | x4 | x4 | %19
 x4 | x4 | x4 | x4 | x4 | x4 | x4 | x4 | x4 | x4 | x4 | x4 | x4 | x4 | x4 | x4 | x4 | x4 | x x3 | %38
 x4 | x4 | x4 | x4 | x4 | x4 | x4 | x4 | x4 | x4 | x4 | x4 | x4 | x4 | x4 | x4 | x4 | x4 | x4 | %57
 x4 | x4 | x4 | x4 | x4 | x4 | x4 | x4 | x4 | x4 | x4 | x4 | x4 | x4 | x4 | x4 | x4 | x4 | x4 | %76
 x4 | z (!4!F/E/ .F).D | x4 | x4 | x4 | x4 | x4 |] %83
V:5
 x4 | x4 | x4 | x4 | x4 | x4 | x4 | x4 | x4 | x4 | x4 | x4 | x4 | x4 | x4 | x4 | x4 | x4 | x4 | %19
 x4 | x4 | x4 | x4 | x4 | x4 | x4 | x4 | x4 | x4 | x4 | x4 | x4 | x4 | x4 | x4 | x4 | x4 | x4 | %38
 z!mf! (!2!C,/!3!B,,/ .!2!C,).G,, | (!>!!2!E,/4!3!D,/4E,3/2) .!tenuto!D,2 | %40
 z !2!C,/B,,/ C,/D,/!3!B,,/C,/ | !4!A,,/C,/B,,/C,/ !1!D,/!2!E,/!3!C,/D,/ | %42
 .!4!B,,/D,/!3!C,/D,/ !1!E,/!2!=F,/!3!D,/E,/ | !4!C,/E,/!3!D,/E,/ x2 | x4 | x4 | x4 | x4 | x4 | %49
 x4 | x4 | x4 | x4 | x4 | x4 | x4 | x4 | x4 | x4 | x4 | x4 | x4 | x4 | x4 | x4 | x4 | x4 | x4 | %68
 x4 | x4 | x4 | x4 | !2!F,/E,/F,/G,/ F,/G,/!3!E,/!1!F,/ | %73
 .!3!D,/!4!C,/!1!D,/E,/ !1!D,/!2!C,/!3!B,,/A,,/ | %74
 !1!G,,/!2!F,,/!1!G,,/!2!A,,/ !1!G,,/F,,/E,,/D,,/ | x4 | x4 | x4 | x4 | x4 | x4 | .F,, z .G,, z | %82
 x4 |] %83

